!!!COM: Anon.
!!!OCL: Francis James Child
!!!OPR: The English and Scottish Popular Ballads
!!!OVM: Vol. 1
!!!ONB: Ballad No. 7, Tune No. 1a
!!!ONM: No. 7
!!!PDT: 1882
!!!YEM: Public domain.
**kern
*M4/4
{4g
=1
8a
8a
8a
8a
4g
4g
=2
4a
4a
4.g}
!! Second phrase:
{8g
=3
4g
4b
4dd
8dd
8dd
=4
2ee;
4.dd}
!! Third phrase:
{8dd
=5
*M5/4
8ee
8ee
8ee
8ee
4dd
4dd
4b
=6
*M4/4
4a
8a
8g
4e}
!! Fourth phrase:
{8a
8g
=7
4d
8d
8d
4g
4b
=8
2a
4g}
====
*-
!!!OCY: Britain; England
!!!PPP: Boston
!!!ODT: <1882
!!!AFR: folk song
!!!AST: monophony
!!!AMT: irregular
!!!SCA: Child Collection
!!!AIN: vox
!!!EEV: 1.0
!!!RDT: 1987 June
!!!YER: 1994 August 10
!!!VTS: 652652838
